packages/foundations/assets/icons/functional/images/editing/cross_14.svg

<svg width="14" height="14" viewBox="0 0 14 14" fill="none" xmlns="http://www.w3.org/2000/svg">
<g clip-path="url(#clip0_77_985)">
<path fill-rule="evenodd" clip-rule="evenodd" d="M2.79988 10.4999C2.79988 10.3029 2.86588 10.1279 2.99688 9.99687L5.99388 6.99987L2.99688 3.98087C2.93406 3.91756 2.88433 3.8425 2.85053 3.75997C2.81673 3.67744 2.79951 3.58906 2.79988 3.49987C2.79988 3.14987 3.08388 2.79987 3.49988 2.79987C3.67488 2.79987 3.84988 2.86587 3.98088 2.99687L6.99988 5.99387L10.0189 2.99687C10.0822 2.93405 10.1572 2.88433 10.2398 2.85052C10.3223 2.81672 10.4107 2.79951 10.4999 2.79987C10.8719 2.79987 11.1999 3.10587 11.1999 3.49987C11.1999 3.67487 11.1339 3.84987 11.0029 3.98087L8.00587 6.99987L11.0029 9.99687C11.0677 10.0633 11.1186 10.142 11.1524 10.2284C11.1862 10.3148 11.2024 10.4071 11.1999 10.4999C11.1999 10.8719 10.8939 11.1999 10.4999 11.1999C10.4071 11.2024 10.3148 11.1862 10.2284 11.1524C10.142 11.1186 10.0633 11.0677 9.99687 11.0029L6.99988 7.98387L4.00287 11.0039C3.93641 11.0685 3.85765 11.1192 3.77124 11.1529C3.68484 11.1865 3.59257 11.2025 3.49988 11.1999C3.31463 11.1986 3.13734 11.1244 3.00635 10.9934C2.87535 10.8624 2.80118 10.6851 2.79988 10.4999Z" fill="#1A1C1F"/>
</g>
<defs>
<clipPath id="clip0_77_985">
<rect width="14" height="14" fill="white"/>
</clipPath>
</defs>
</svg>

<svg xmlns="http://www.w3.org/2000/svg" width="14" height="14" fill="none"><g clip-path="url(#a)"><path fill="#1A1C1F" fill-rule="evenodd" d="M2.8 10.5c0-.197.066-.372.197-.503L5.994 7 2.997 3.98A.68.68 0 0 1 2.8 3.5c0-.35.284-.7.7-.7.175 0 .35.066.48.197L7 5.994l3.019-2.997a.68.68 0 0 1 .48-.197c.373 0 .7.306.7.7 0 .175-.065.35-.196.48L8.006 7l2.997 2.997a.7.7 0 0 1 .197.503c0 .372-.306.7-.7.7a.7.7 0 0 1-.503-.197L7 7.983l-2.997 3.02a.7.7 0 0 1-.503.197.705.705 0 0 1-.7-.7" clip-rule="evenodd"/></g><defs><clipPath id="a"><path fill="#fff" d="M0 0h14v14H0z"/></clipPath></defs></svg>
